;FLAVOR:Marlin
;TIME:6118
;Filament used: 4.21423m
;Layer height: 0.16
;MINX:123.299
;MINY:123.3
;MINZ:0.2
;MAXX:176.7
;MAXY:176.7
;MAXZ:29.96
;Generated with Cura_SteamEngine 4.6.2
M82 ;absolute extrusion mode
PRINT_START BED_TEMP=60 EXTRUDER_TEMP=180
G92 E0
G92 E0
G1 F1800 E-2
;LAYER_COUNT:187
;LAYER:0
M107
G0 F3600 X159.233 Y124.911 Z0.2
;TYPE:SKIRT
G1 F1800 E0
G1 F1500 X160.134 Y124.964 E0.03002
G1 X161.028 Y125.096 E0.06008
G1 X161.906 Y125.307 E0.09011
G1 X162.762 Y125.595 E0.12015
G1 X163.589 Y125.957 E0.15017
G1 X164.381 Y126.391 E0.18021
G1 X165.131 Y126.894 E0.21025
G1 X166.149 Y127.75 E0.25449
G1 X166.644 Y128.229 E0.2774
G1 X171.722 Y133.307 E0.51625
G1 X172.191 Y133.788 E0.53859
G1 X172.792 Y134.462 E0.56863
G1 X173.332 Y135.186 E0.59867
G1 X173.805 Y135.956 E0.62873
G1 X174.208 Y136.764 E0.65876
G1 X174.538 Y137.604 E0.68877
G1 X174.792 Y138.471 E0.71882
G1 X174.969 Y139.357 E0.74887
G1 X175.086 Y140.691 E0.79341
G1 X175.098 Y141.253 E0.81211
G1 X175.1 Y158.384 E1.38189
G1 X175.089 Y159.228 E1.40996
G1 X175.036 Y160.13 E1.44002
G1 X174.904 Y161.023 E1.47004
G1 X174.693 Y161.901 E1.50007
G1 X174.405 Y162.757 E1.53011
G1 X174.043 Y163.584 E1.56014
G1 X173.608 Y164.376 E1.59019
G1 X173.106 Y165.127 E1.62024
G1 X172.281 Y166.112 E1.66297
G1 X171.911 Y166.501 E1.68083
G1 X166.809 Y171.609 E1.92095
G1 X166.207 Y172.197 E1.94894
G1 X165.533 Y172.798 E1.97898
G1 X164.808 Y173.337 E2.00902
G1 X164.039 Y173.809 E2.03903
G1 X163.231 Y174.212 E2.06906
G1 X162.39 Y174.542 E2.09911
G1 X161.523 Y174.796 E2.12916
G1 X160.638 Y174.973 E2.15918
G1 X159.74 Y175.07 E2.18922
G1 X158.731 Y175.099 E2.22279
G1 X141.612 Y175.1 E2.79217
G1 X140.795 Y175.089 E2.81935
G1 X139.893 Y175.035 E2.8494
G1 X139 Y174.902 E2.87943
G1 X138.424 Y174.763 E2.89914
G1 X137.874 Y174.607 E2.91816
G1 X137.266 Y174.402 E2.9395
G1 X136.487 Y174.06 E2.96779
G1 X136.015 Y173.829 E2.98527
G1 X135.241 Y173.362 E3.01534
G1 X134.512 Y172.829 E3.04537
G1 X133.828 Y172.228 E3.07566
G1 X133.353 Y171.768 E3.09765
G1 X128.369 Y166.784 E3.33208
G1 X127.802 Y166.203 E3.35908
G1 X127.201 Y165.529 E3.38912
G1 X126.663 Y164.804 E3.41915
G1 X126.19 Y164.034 E3.4492
G1 X125.788 Y163.225 E3.47925
G1 X125.459 Y162.384 E3.50929
G1 X125.205 Y161.518 E3.5393
G1 X125.029 Y160.632 E3.56935
G1 X124.914 Y159.307 E3.61358
G1 X124.902 Y158.744 E3.63231
G1 X124.899 Y141.618 E4.20192
G1 X124.91 Y140.768 E4.2302
G1 X124.963 Y139.867 E4.26022
G1 X125.095 Y138.973 E4.29027
G1 X125.306 Y138.095 E4.32031
G1 X125.594 Y137.239 E4.35035
G1 X125.956 Y136.412 E4.38037
G1 X126.39 Y135.62 E4.41041
G1 X126.892 Y134.869 E4.44046
G1 X127.622 Y133.986 E4.47856
G1 X128.137 Y133.446 E4.50338
G1 X133.216 Y128.367 E4.74228
G1 X133.797 Y127.801 E4.76926
G1 X134.471 Y127.2 E4.79929
G1 X135.196 Y126.662 E4.82932
G1 X135.966 Y126.189 E4.85938
G1 X136.775 Y125.787 E4.88942
G1 X137.616 Y125.458 E4.91946
G1 X138.482 Y125.204 E4.94948
G1 X139.368 Y125.028 E4.97952
G1 X140.691 Y124.913 E5.02369
G1 X141.25 Y124.901 E5.04229
G1 X158.388 Y124.9 E5.6123
G1 X159.233 Y124.911 E5.64041
G0 F3600 X159.238 Y124.511
G1 F1500 X160.158 Y124.564 E5.67106
G1 X161.069 Y124.697 E5.70168
G1 X161.965 Y124.908 E5.73229
G1 X162.839 Y125.196 E5.7629
G1 X163.685 Y125.559 E5.79352
G1 X164.497 Y125.994 E5.82416
G1 X165.267 Y126.498 E5.85477
G1 X165.991 Y127.067 E5.88539
G1 X166.426 Y127.461 E5.90491
G1 X166.927 Y127.946 E5.92811
G1 X171.914 Y132.933 E6.16268
G1 X172.477 Y133.509 E6.18947
G1 X173.091 Y134.195 E6.22009
G1 X173.643 Y134.933 E6.25074
G1 X174.128 Y135.715 E6.28135
G1 X174.544 Y136.536 E6.31196
G1 X174.887 Y137.39 E6.34257
G1 X175.155 Y138.271 E6.3732
G1 X175.345 Y139.172 E6.40382
G1 X175.456 Y140.086 E6.43445
G1 X175.486 Y140.683 E6.45433
G1 X175.498 Y141.245 E6.47302
G1 X175.5 Y158.384 E7.04307
G1 X175.489 Y159.234 E7.07134
G1 X175.436 Y160.153 E7.10196
G1 X175.303 Y161.064 E7.13258
G1 X175.092 Y161.96 E7.1632
G1 X174.804 Y162.834 E7.1938
G1 X174.441 Y163.681 E7.22445
G1 X174.006 Y164.492 E7.25506
G1 X173.502 Y165.262 E7.28567
G1 X172.933 Y165.986 E7.3163
G1 X172.571 Y166.387 E7.33427
G1 X172.201 Y166.776 E7.35212
G1 X167.092 Y171.892 E7.5926
G1 X166.486 Y172.483 E7.62075
G1 X165.799 Y173.096 E7.65138
G1 X165.062 Y173.648 E7.682
G1 X164.28 Y174.133 E7.71261
G1 X163.458 Y174.549 E7.74325
G1 X162.604 Y174.891 E7.77385
G1 X161.723 Y175.159 E7.80448
G1 X160.822 Y175.348 E7.8351
G1 X159.908 Y175.459 E7.86572
G1 X159.283 Y175.489 E7.88653
G1 X158.738 Y175.499 E7.90466
G1 X141.612 Y175.5 E8.47427
G1 X140.789 Y175.489 E8.50165
G1 X139.87 Y175.435 E8.53227
G1 X138.959 Y175.302 E8.56289
G1 X138.43 Y175.177 E8.58097
G1 X137.846 Y175.018 E8.6011
G1 X137.188 Y174.801 E8.62414
G1 X136.397 Y174.46 E8.65279
G1 X135.981 Y174.265 E8.66807
G1 X135.184 Y173.803 E8.69871
G1 X134.431 Y173.274 E8.72932
G1 X133.551 Y172.517 E8.76793
G1 X133.07 Y172.051 E8.7902
G1 X128.086 Y167.067 E9.02464
G1 X127.515 Y166.482 E9.05183
G1 X126.902 Y165.795 E9.08245
G1 X126.351 Y165.057 E9.11308
G1 X125.867 Y164.275 E9.14367
G1 X125.452 Y163.453 E9.1743
G1 X125.109 Y162.598 E9.20494
G1 X124.843 Y161.717 E9.23554
G1 X124.653 Y160.816 E9.26617
G1 X124.543 Y159.902 E9.29679
G1 X124.514 Y159.316 E9.3163
G1 X124.502 Y158.753 E9.33503
G1 X124.499 Y141.618 E9.90495
G1 X124.51 Y140.762 E9.93342
G1 X124.563 Y139.843 E9.96404
G1 X124.696 Y138.932 E9.99466
G1 X124.907 Y138.036 E10.02527
G1 X125.195 Y137.162 E10.05588
G1 X125.558 Y136.316 E10.0865
G1 X125.993 Y135.504 E10.11714
G1 X126.497 Y134.734 E10.14775
G1 X127.328 Y133.714 E10.19151
G1 X127.851 Y133.167 E10.21668
G1 X132.933 Y128.084 E10.45574
G1 X133.518 Y127.514 E10.48291
G1 X134.205 Y126.901 E10.51353
G1 X134.943 Y126.35 E10.54416
G1 X135.725 Y125.866 E10.57475
G1 X136.547 Y125.451 E10.60538
G1 X137.402 Y125.108 E10.63602
G1 X138.283 Y124.842 E10.66663
G1 X139.184 Y124.652 E10.69726
G1 X140.098 Y124.542 E10.72787
G1 X140.683 Y124.513 E10.74736
G1 X141.242 Y124.501 E10.76595
G1 X158.388 Y124.5 E11.33623
G1 X159.238 Y124.511 E11.3645
G0 F3600 X159.244 Y124.111
G1 F1500 X160.18 Y124.164 E11.39569
G1 X161.109 Y124.297 E11.4269
G1 X162.023 Y124.509 E11.45811
G1 X162.915 Y124.798 E11.48929
G1 X163.779 Y125.161 E11.52046
G1 X164.61 Y125.597 E11.55167
G1 X165.4 Y126.102 E11.58286
G1 X166.145 Y126.673 E11.61408
G1 X166.702 Y127.172 E11.63895
G1 X167.21 Y127.663 E11.66245
G1 X172.197 Y132.65 E11.89702
G1 X172.764 Y133.23 E11.924
G1 X173.389 Y133.928 E11.95516
G1 X173.953 Y134.678 E11.98637
G1 X174.451 Y135.473 E12.01758
G1 X174.879 Y136.307 E12.04875
G1 X175.235 Y137.175 E12.07996
G1 X175.515 Y138.07 E12.11115
G1 X175.719 Y138.986 E12.14236
G1 X175.843 Y139.915 E12.17353
G1 X175.885 Y140.674 E12.19882
G1 X175.897 Y141.236 E12.21751
G1 X175.9 Y158.384 E12.78786
G1 X175.889 Y159.24 E12.81633
G1 X175.835 Y160.176 E12.84751
G1 X175.703 Y161.104 E12.87869
G1 X175.491 Y162.018 E12.9099
G1 X175.202 Y162.91 E12.94108
G1 X174.839 Y163.775 E12.97228
G1 X174.403 Y164.605 E13.00347
G1 X173.898 Y165.396 E13.03468
G1 X173.327 Y166.14 E13.06587
G1 X172.86 Y166.663 E13.08919
G1 X172.49 Y167.052 E13.10705
G1 X167.375 Y172.175 E13.34783
G1 X166.765 Y172.77 E13.37617
G1 X166.066 Y173.395 E13.40736
G1 X165.317 Y173.958 E13.43853
G1 X164.521 Y174.456 E13.46976
G1 X163.687 Y174.884 E13.50093
G1 X162.819 Y175.239 E13.53213
G1 X161.924 Y175.519 E13.56332
G1 X161.008 Y175.722 E13.59452
G1 X160.079 Y175.846 E13.62569
G1 X159.291 Y175.889 E13.65194
G1 X158.746 Y175.899 E13.67007
G1 X141.612 Y175.9 E14.23995
G1 X140.783 Y175.889 E14.26753
G1 X139.846 Y175.835 E14.29874
G1 X138.918 Y175.701 E14.32993
G1 X138.004 Y175.489 E14.36114
G1 X137.425 Y175.301 E14.38138
G1 X136.807 Y175.084 E14.40317
G1 X136.345 Y174.876 E14.42002
G1 X135.952 Y174.699 E14.43435
G1 X135.132 Y174.242 E14.46558
G1 X134.355 Y173.718 E14.49675
G1 X133.625 Y173.128 E14.52797
G1 X132.945 Y172.489 E14.559
G1 X127.803 Y167.35 E14.8008
G1 X127.228 Y166.761 E14.82817
G1 X126.603 Y166.062 E14.85936
G1 X126.04 Y165.312 E14.89055
G1 X125.543 Y164.516 E14.92176
G1 X125.116 Y163.681 E14.95296
G1 X124.761 Y162.813 E14.98415
G1 X124.482 Y161.918 E15.01533
G1 X124.279 Y161.002 E15.04653
G1 X124.156 Y160.072 E15.07774
G1 X124.114 Y159.324 E15.10265
G1 X124.102 Y158.761 E15.12138
G1 X124.099 Y141.618 E15.69156
G1 X124.11 Y140.757 E15.7202
G1 X124.163 Y139.82 E15.75142
G1 X124.296 Y138.892 E15.7826
G1 X124.508 Y137.978 E15.8138
G1 X124.796 Y137.086 E15.84498
G1 X125.16 Y136.221 E15.87619
G1 X125.596 Y135.391 E15.90738
G1 X126.101 Y134.601 E15.93856
G1 X126.671 Y133.856 E15.96976
G1 X127.035 Y133.443 E15.98807
G1 X127.383 Y133.073 E16.00496
G1 X132.651 Y127.801 E16.25285
G1 X133.239 Y127.227 E16.28018
G1 X133.938 Y126.602 E16.31137
G1 X134.688 Y126.039 E16.34256
G1 X135.484 Y125.542 E16.37377
G1 X136.319 Y125.115 E16.40496
G1 X137.187 Y124.76 E16.43615
G1 X138.082 Y124.481 E16.46733
G1 X138.998 Y124.278 E16.49854
G1 X139.928 Y124.155 E16.52974
G1 X140.674 Y124.114 E16.55459
G1 X141.233 Y124.102 E16.57319
G1 X158.388 Y124.1 E17.14376
G1 X159.244 Y124.111 E17.17224
G0 F3600 X159.25 Y123.711
G1 F1500 X160.203 Y123.765 E17.20399
G1 X161.149 Y123.898 E17.23576
G1 X162.08 Y124.11 E17.26752
G1 X162.99 Y124.399 E17.29927
G1 X163.872 Y124.763 E17.33101
G1 X164.721 Y125.2 E17.36277
G1 X165.531 Y125.706 E17.39453
G1 X166.295 Y126.278 E17.42628
G1 X166.979 Y126.884 E17.45667
G1 X167.493 Y127.38 E17.48043
G1 X172.48 Y132.367 E17.715
G1 X173.05 Y132.95 E17.74212
G1 X173.688 Y133.661 E17.77389
G1 X174.263 Y134.423 E17.80564
G1 X174.773 Y135.23 E17.83739
G1 X175.214 Y136.077 E17.86916
G1 X175.582 Y136.958 E17.90091
G1 X175.875 Y137.867 E17.93268
G1 X176.091 Y138.797 E17.96443
G1 X176.228 Y139.742 E17.99619
G1 X176.285 Y140.666 E18.02698
G1 X176.297 Y141.228 E18.04568
G1 X176.3 Y158.384 E18.61629
G1 X176.289 Y159.245 E18.64493
G1 X176.235 Y160.199 E18.67671
G1 X176.102 Y161.144 E18.70845
G1 X175.89 Y162.075 E18.74021
G1 X175.601 Y162.985 E18.77196
G1 X175.237 Y163.868 E18.80373
G1 X174.8 Y164.717 E18.83549
G1 X174.294 Y165.526 E18.86723
G1 X173.722 Y166.29 E18.89897
G1 X173.15 Y166.939 E18.92774
G1 X172.78 Y167.328 E18.9456
G1 X167.658 Y172.457 E19.18669
G1 X167.044 Y173.056 E19.21522
G1 X166.333 Y173.693 E19.24697
G1 X165.571 Y174.269 E19.27874
G1 X164.764 Y174.778 E19.31047
G1 X163.917 Y175.218 E19.34222
G1 X163.036 Y175.586 E19.37397
G1 X162.127 Y175.879 E19.40574
G1 X161.197 Y176.094 E19.43749
G1 X160.252 Y176.232 E19.46925
G1 X159.298 Y176.289 E19.50104
G1 X158.753 Y176.299 E19.51917
G1 X141.612 Y176.3 E20.08928
G1 X140.777 Y176.289 E20.11705
G1 X139.823 Y176.234 E20.14884
G1 X138.878 Y176.1 E20.18058
G1 X137.947 Y175.888 E20.21234
G1 X137.408 Y175.716 E20.23116
G1 X136.802 Y175.512 E20.25243
G1 X136.204 Y175.253 E20.2741
G1 X135.085 Y174.681 E20.3159
G1 X134.285 Y174.16 E20.34765
G1 X133.531 Y173.575 E20.37939
G1 X132.997 Y173.094 E20.4033
G1 X132.504 Y172.617 E20.42611
G1 X127.52 Y167.633 E20.66055
G1 X126.942 Y167.04 E20.68809
G1 X126.305 Y166.329 E20.71984
G1 X125.73 Y165.566 E20.75161
G1 X125.221 Y164.758 E20.78338
G1 X124.781 Y163.911 E20.81512
G1 X124.414 Y163.029 E20.8469
G1 X124.122 Y162.12 E20.87865
G1 X123.907 Y161.19 E20.9104
G1 X123.771 Y160.245 E20.94215
G1 X123.715 Y159.333 E20.97254
G1 X123.703 Y158.77 E20.99127
G1 X123.699 Y141.618 E21.56175
G1 X123.71 Y140.751 E21.59059
G1 X123.764 Y139.798 E21.62234
G1 X123.897 Y138.852 E21.65411
G1 X124.109 Y137.921 E21.68587
G1 X124.397 Y137.011 E21.71762
G1 X124.762 Y136.129 E21.74936
G1 X125.198 Y135.28 E21.78111
G1 X125.704 Y134.47 E21.81287
G1 X126.276 Y133.706 E21.84462
G1 X126.741 Y133.171 E21.86819
G1 X127.097 Y132.793 E21.88546
G1 X132.368 Y127.518 E22.13349
G1 X132.96 Y126.941 E22.16098
G1 X133.671 Y126.304 E22.19274
G1 X134.434 Y125.729 E22.22451
G1 X135.242 Y125.22 E22.25627
G1 X136.089 Y124.78 E22.28802
G1 X136.971 Y124.413 E22.31979
G1 X137.88 Y124.121 E22.35155
G1 X138.81 Y123.906 E22.3833
G1 X139.755 Y123.77 E22.41505
G1 X140.665 Y123.714 E22.44537
G1 X141.224 Y123.702 E22.46397
G1 X158.388 Y123.7 E23.03485
G1 X159.25 Y123.711 E23.06352
G0 F3600 X159.256 Y123.311
G1 F1500 X160.225 Y123.365 E23.0958
G1 X161.188 Y123.498 E23.12813
G1 X162.136 Y123.711 E23.16045
G1 X163.063 Y124 E23.19275
G1 X163.963 Y124.365 E23.22505
G1 X164.831 Y124.802 E23.25737
G1 X165.659 Y125.309 E23.28966
G1 X166.443 Y125.883 E23.32198
G1 X167.256 Y126.595 E23.35792
G1 X167.776 Y127.097 E23.38196
G1 X172.763 Y132.084 E23.61654
G1 X173.337 Y132.671 E23.64384
G1 X173.986 Y133.394 E23.67616
G1 X174.573 Y134.168 E23.70847
G1 X175.094 Y134.987 E23.74075
G1 X175.547 Y135.847 E23.77308
G1 X175.927 Y136.741 E23.80539
G1 X176.233 Y137.663 E23.8377
G1 X176.461 Y138.607 E23.87
G1 X176.611 Y139.567 E23.90232
G1 X176.685 Y140.657 E23.93866
G1 X176.697 Y141.219 E23.95735
G1 X176.7 Y158.384 E24.52826
G1 X176.689 Y159.251 E24.5571
G1 X176.635 Y160.221 E24.58941
G1 X176.501 Y161.183 E24.62172
G1 X176.289 Y162.131 E24.65403
G1 X176 Y163.058 E24.68632
G1 X175.635 Y163.959 E24.71866
G1 X175.198 Y164.826 E24.75095
G1 X174.69 Y165.654 E24.78326
G1 X174.116 Y166.438 E24.81558
G1 X173.44 Y167.214 E24.84981
G1 X173.07 Y167.603 E24.86766
G1 X167.941 Y172.74 E25.1091
G1 X167.324 Y173.343 E25.1378
G1 X166.601 Y173.991 E25.17009
G1 X165.827 Y174.578 E25.2024
G1 X165.007 Y175.1 E25.23473
G1 X164.147 Y175.552 E25.26704
G1 X163.253 Y175.932 E25.29935
G1 X162.331 Y176.237 E25.33165
G1 X161.387 Y176.465 E25.36395
G1 X160.427 Y176.615 E25.39627
G1 X159.305 Y176.689 E25.43367
G1 X158.76 Y176.699 E25.4518
G1 X141.612 Y176.7 E26.02214
G1 X140.771 Y176.689 E26.05012
G1 X139.801 Y176.634 E26.08243
G1 X138.839 Y176.5 E26.11474
G1 X137.891 Y176.287 E26.14705
G1 X137.386 Y176.129 E26.16465
G1 X136.901 Y175.972 E26.18161
G1 X136.117 Y175.654 E26.20975
G1 X135.042 Y175.119 E26.24969
G1 X134.219 Y174.603 E26.28199
G1 X133.441 Y174.021 E26.31431
G1 X132.72 Y173.382 E26.34635
G1 X132.221 Y172.9 E26.36943
G1 X127.237 Y167.916 E26.60386
G1 X126.655 Y167.319 E26.63159
G1 X126.007 Y166.596 E26.66388
G1 X125.42 Y165.821 E26.69622
G1 X124.899 Y165.001 E26.72853
G1 X124.448 Y164.141 E26.76083
G1 X124.068 Y163.247 E26.79314
G1 X123.764 Y162.324 E26.82546
G1 X123.536 Y161.38 E26.85776
G1 X123.387 Y160.42 E26.89007
G1 X123.315 Y159.341 E26.92604
G1 X123.303 Y158.778 E26.94477
G1 X123.299 Y141.618 E27.51551
G1 X123.31 Y140.745 E27.54455
G1 X123.364 Y139.776 E27.57683
G1 X123.497 Y138.813 E27.60916
G1 X123.709 Y137.865 E27.64147
G1 X123.999 Y136.938 E27.67378
G1 X124.363 Y136.038 E27.70607
G1 X124.801 Y135.17 E27.73841
G1 X125.308 Y134.342 E27.7707
G1 X125.882 Y133.558 E27.80302
G1 X126.447 Y132.9 E27.83186
G1 X126.811 Y132.513 E27.84953
G1 X132.085 Y127.235 E28.0977
G1 X132.681 Y126.654 E28.12538
G1 X133.404 Y126.006 E28.15767
G1 X134.179 Y125.419 E28.19001
G1 X134.999 Y124.898 E28.22232
G1 X135.859 Y124.447 E28.25462
G1 X136.753 Y124.067 E28.28693
G1 X137.676 Y123.763 E28.31925
G1 X138.62 Y123.535 E28.35155
G1 X139.58 Y123.386 E28.38386
G1 X140.657 Y123.314 E28.41977
G1 X141.216 Y123.302 E28.43836
G1 X158.388 Y123.3 E29.00951
G1 X159.256 Y123.311 E29.03838
G1 F1800 E27.03838
;MESH:Voron_Design_Cube_v7.stl
G0 F3600 X158.836 Y134.434
G0 X158.836 Y135.718
G0 X163.9 Y141.323
;TYPE:WALL-INNER
G1 F1800 E29.03838
G1 F1500 X163.9 Y158.677 E29.61557
G1 X158.678 Y163.901 E29.86125
G1 X141.323 Y163.9 E30.43848
G1 X136.1 Y158.677 E30.68415
G1 X136.099 Y141.322 E31.26138
G1 X141.322 Y136.099 E31.50706
G1 X158.677 Y136.1 E32.08428
G1 X163.9 Y141.323 E32.32996
G0 F3600 X157.125 Y154.429
G0 X156.357 Y155.476
G0 X155.433 Y156.392
G0 X154.381 Y157.156
G0 X153.223 Y157.746
G0 X151.987 Y158.15
G0 X150.703 Y158.359
G0 X149.405 Y158.368
G0 X148.118 Y158.175
G0 X146.879 Y157.788
G0 X145.713 Y157.211
G0 X144.852 Y156.604
G0 X142.625 Y154.712
G1 F1500 X143.018 Y155.27 E32.35266
G1 X143.444 Y155.796 E32.37517
G1 X143.916 Y156.287 E32.39782
G1 X144.419 Y156.739 E32.42032
G1 X144.961 Y157.151 E32.44296
G1 X145.529 Y157.521 E32.46551
G1 X146.124 Y157.843 E32.48801
G1 X146.744 Y158.123 E32.51064
G1 X147.383 Y158.348 E32.53317
G1 X148.036 Y158.527 E32.55569
G1 X148.705 Y158.652 E32.57832
G1 X149.379 Y158.728 E32.60088
