;FLAVOR:RepRap
;TIME:4898
;Filament used: 3.48294m
;Layer height: 0.2
;MINX:40.299
;MINY:40.299
;MINZ:0.2
;MAXX:79.7
;MAXY:79.701
;MAXZ:30
;Generated with Cura_SteamEngine 4.6.2
T0
M190 S110
M104 S245
M109 S245
M82 ;absolute extrusion mode
print_start EXTRUDER_TEMP=245 BED_TEMP=110
M83 ;relative extrusion mode
G1 F1200 E-2
;LAYER_COUNT:150
;LAYER:0
M107
G1 F600 Z0.4
G0 F7200 X69.133 Y41.91 Z0.4
;TYPE:SKIRT
G1 F600 Z0.2
G1 F480 E2
G1 F900 X69.636 Y41.957 E0.0168
G1 X70.126 Y42.083 E0.01683
G1 X70.589 Y42.285 E0.0168
G1 X71.016 Y42.557 E0.01684
G1 X71.302 Y42.801 E0.0125
G1 X71.695 Y43.178 E0.01811
G1 X76.71 Y48.194 E0.23591
G1 X77.179 Y48.675 E0.02234
G1 X77.502 Y49.064 E0.01682
G1 X77.76 Y49.499 E0.01682
G1 X77.947 Y49.969 E0.01682
G1 X78.057 Y50.462 E0.0168
G1 X78.087 Y50.841 E0.01265
G1 X78.1 Y51.471 E0.02096
G1 X78.1 Y68.43 E0.56406
G1 X78.09 Y69.128 E0.02322
G1 X78.043 Y69.631 E0.0168
G1 X77.917 Y70.121 E0.01683
G1 X77.715 Y70.585 E0.01683
G1 X77.443 Y71.011 E0.01681
G1 X77.209 Y71.287 E0.01204
G1 X76.783 Y71.733 E0.02051
G1 X71.828 Y76.69 E0.23312
G1 X71.322 Y77.183 E0.0235
G1 X70.933 Y77.506 E0.01682
G1 X70.498 Y77.764 E0.01682
G1 X70.028 Y77.95 E0.01681
G1 X69.535 Y78.06 E0.0168
G1 X69.148 Y78.09 E0.01291
G1 X68.544 Y78.101 E0.02009
G1 X51.565 Y78.1 E0.56472
G1 X50.9 Y78.09 E0.02212
G1 X50.397 Y78.042 E0.01681
G1 X50.187 Y77.988 E0.00721
G1 X50.116 Y77.976 E0.00239
G1 X50.036 Y77.949 E0.00281
G1 X49.907 Y77.916 E0.00443
G1 X49.806 Y77.872 E0.00366
G1 X49.636 Y77.815 E0.00596
G1 X49.189 Y77.58 E0.0168
G1 X48.677 Y77.18 E0.02161
G1 X48.302 Y76.819 E0.01731
G1 X43.288 Y71.804 E0.23587
G1 X42.819 Y71.322 E0.02237
G1 X42.496 Y70.933 E0.01682
G1 X42.238 Y70.497 E0.01685
G1 X42.052 Y70.027 E0.01681
G1 X41.943 Y69.534 E0.01679
G1 X41.913 Y69.158 E0.01255
G1 X41.9 Y68.527 E0.02099
G1 X41.899 Y51.572 E0.56393
G1 X41.909 Y50.868 E0.02342
G1 X41.956 Y50.364 E0.01684
G1 X42.082 Y49.875 E0.0168
G1 X42.284 Y49.411 E0.01683
G1 X42.555 Y48.985 E0.01679
G1 X42.76 Y48.74 E0.01063
G1 X42.958 Y48.528 E0.00965
G1 X43.164 Y48.317 E0.00981
G1 X48.196 Y43.287 E0.23664
G1 X48.678 Y42.818 E0.02237
G1 X49.067 Y42.495 E0.01682
G1 X49.503 Y42.237 E0.01685
G1 X49.973 Y42.051 E0.01681
G1 X50.466 Y41.942 E0.01679
G1 X50.841 Y41.912 E0.01251
G1 X51.469 Y41.899 E0.02089
G1 X68.387 Y41.9 E0.56269
G1 X69.133 Y41.91 E0.02481
G0 F7200 X69.138 Y41.51
G1 F900 X69.673 Y41.558 E0.01787
G1 X70.194 Y41.684 E0.01783
G1 X70.69 Y41.887 E0.01783
G1 X71.151 Y42.161 E0.01784
G1 X71.579 Y42.512 E0.01841
G1 X71.978 Y42.895 E0.0184
G1 X76.997 Y47.915 E0.2361
G1 X77.466 Y48.396 E0.02234
G1 X77.81 Y48.807 E0.01783
G1 X78.09 Y49.264 E0.01783
G1 X78.299 Y49.758 E0.01784
G1 X78.432 Y50.277 E0.01782
G1 X78.487 Y50.832 E0.01855
G1 X78.5 Y51.471 E0.02126
G1 X78.5 Y68.436 E0.56426
G1 X78.49 Y69.134 E0.02322
G1 X78.442 Y69.668 E0.01783
G1 X78.316 Y70.189 E0.01783
G1 X78.113 Y70.686 E0.01786
G1 X77.839 Y71.147 E0.01784
G1 X77.498 Y71.563 E0.01789
G1 X77.066 Y72.016 E0.02082
G1 X72.107 Y76.976 E0.23328
G1 X71.601 Y77.469 E0.0235
G1 X71.19 Y77.814 E0.01785
G1 X70.733 Y78.094 E0.01783
G1 X70.239 Y78.302 E0.01783
G1 X69.719 Y78.435 E0.01785
G1 X69.155 Y78.49 E0.01885
G1 X68.544 Y78.501 E0.02033
G1 X51.559 Y78.5 E0.56492
G1 X50.894 Y78.49 E0.02212
G1 X50.36 Y78.442 E0.01783
G1 X49.839 Y78.315 E0.01784
G1 X49.744 Y78.276 E0.00342
G1 X49.63 Y78.243 E0.00395
G1 X49.144 Y78.018 E0.01781
G1 X48.696 Y77.723 E0.01784
G1 X48.4 Y77.468 E0.01299
G1 X48.019 Y77.102 E0.01757
G1 X43.001 Y72.083 E0.23605
G1 X42.532 Y71.601 E0.02237
G1 X42.188 Y71.189 E0.01785
G1 X41.908 Y70.732 E0.01783
G1 X41.7 Y70.238 E0.01783
G1 X41.567 Y69.718 E0.01785
G1 X41.513 Y69.167 E0.01841
G1 X41.5 Y68.527 E0.02129
G1 X41.499 Y51.566 E0.56413
G1 X41.509 Y50.862 E0.02342
G1 X41.557 Y50.328 E0.01783
G1 X41.683 Y49.807 E0.01783
G1 X41.886 Y49.31 E0.01786
G1 X42.16 Y48.849 E0.01784
G1 X42.466 Y48.468 E0.01625
G1 X42.672 Y48.248 E0.01002
G1 X42.882 Y48.034 E0.00997
G1 X47.917 Y43 E0.23681
G1 X48.399 Y42.531 E0.02237
G1 X48.811 Y42.187 E0.01785
G1 X49.268 Y41.907 E0.01783
G1 X49.762 Y41.699 E0.01783
G1 X50.282 Y41.566 E0.01785
G1 X50.833 Y41.512 E0.01841
G1 X51.469 Y41.499 E0.02116
G1 X68.387 Y41.5 E0.56269
G1 X69.138 Y41.51 E0.02498
G0 F7200 X69.144 Y41.11
G1 F900 X69.707 Y41.158 E0.01879
G1 X70.258 Y41.285 E0.01881
G1 X70.786 Y41.489 E0.01883
G1 X71.279 Y41.764 E0.01878
G1 X71.856 Y42.224 E0.02454
G1 X72.26 Y42.613 E0.01865
G1 X77.283 Y47.636 E0.23627
G1 X77.752 Y48.117 E0.02234
G1 X78.117 Y48.548 E0.01878
G1 X78.418 Y49.027 E0.01882
G1 X78.648 Y49.543 E0.01879
G1 X78.803 Y50.087 E0.01881
G1 X78.887 Y50.824 E0.02467
G1 X78.9 Y51.471 E0.02152
G1 X78.9 Y68.441 E0.56442
G1 X78.89 Y69.139 E0.02322
G1 X78.842 Y69.703 E0.01883
G1 X78.715 Y70.253 E0.01877
G1 X78.511 Y70.781 E0.01883
G1 X78.236 Y71.275 E0.0188
G1 X77.788 Y71.839 E0.02396
G1 X77.349 Y72.299 E0.02115
G1 X72.386 Y77.263 E0.23347
G1 X71.88 Y77.756 E0.0235
G1 X71.449 Y78.121 E0.01878
G1 X70.97 Y78.421 E0.0188
G1 X70.453 Y78.651 E0.01882
G1 X69.909 Y78.806 E0.01881
G1 X69.162 Y78.89 E0.025
G1 X68.544 Y78.901 E0.02056
G1 X51.553 Y78.9 E0.56512
G1 X50.888 Y78.89 E0.02212
G1 X50.325 Y78.841 E0.0188
G1 X49.774 Y78.714 E0.01881
G1 X49.696 Y78.684 E0.00278
G1 X49.634 Y78.668 E0.00213
G1 X49.112 Y78.453 E0.01878
G1 X48.625 Y78.166 E0.0188
G1 X48.123 Y77.757 E0.02154
G1 X47.794 Y77.441 E0.01517
G1 X42.714 Y72.362 E0.23892
G1 X42.245 Y71.88 E0.02237
G1 X41.881 Y71.447 E0.01881
G1 X41.58 Y70.968 E0.01882
G1 X41.351 Y70.452 E0.01878
G1 X41.197 Y69.908 E0.0188
G1 X41.113 Y69.175 E0.02454
G1 X41.1 Y68.527 E0.02156
G1 X41.099 Y51.56 E0.56432
G1 X41.109 Y50.856 E0.02342
G1 X41.157 Y50.293 E0.01879
G1 X41.284 Y49.742 E0.01881
G1 X41.488 Y49.214 E0.01883
G1 X41.763 Y48.721 E0.01878
G1 X42.173 Y48.197 E0.02213
G1 X42.386 Y47.968 E0.0104
G1 X42.599 Y47.751 E0.01011
G1 X47.638 Y42.713 E0.237
G1 X48.12 Y42.244 E0.02237
G1 X48.553 Y41.88 E0.01881
G1 X49.032 Y41.579 E0.01882
G1 X49.548 Y41.35 E0.01878
G1 X50.092 Y41.196 E0.0188
G1 X50.824 Y41.112 E0.02451
G1 X51.469 Y41.099 E0.02146
G1 X68.387 Y41.1 E0.56269
G1 X69.144 Y41.11 E0.02518
G0 F7200 X69.15 Y40.71
G1 F900 X69.741 Y40.759 E0.01972
G1 X70.32 Y40.886 E0.01972
G1 X70.877 Y41.09 E0.01973
G1 X71.401 Y41.368 E0.01973
G1 X71.883 Y41.713 E0.01971
G1 X72.133 Y41.935 E0.01112
G1 X72.543 Y42.33 E0.01894
G1 X77.569 Y47.356 E0.23641
G1 X78.038 Y47.837 E0.02234
G1 X78.423 Y48.289 E0.01975
G1 X78.743 Y48.788 E0.01972
G1 X78.993 Y49.325 E0.0197
G1 X79.169 Y49.892 E0.01975
G1 X79.267 Y50.477 E0.01973
G1 X79.287 Y50.815 E0.01126
G1 X79.3 Y51.471 E0.02182
G1 X79.3 Y68.447 E0.56462
G1 X79.29 Y69.145 E0.02322
G1 X79.241 Y69.736 E0.01972
G1 X79.114 Y70.315 E0.01972
G1 X78.91 Y70.872 E0.01973
G1 X78.632 Y71.396 E0.01973
G1 X78.287 Y71.878 E0.01971
G1 X78.078 Y72.114 E0.01048
G1 X77.632 Y72.582 E0.0215
G1 X72.666 Y77.549 E0.23361
G1 X72.16 Y78.042 E0.0235
G1 X71.708 Y78.427 E0.01975
G1 X71.209 Y78.747 E0.01972
G1 X70.671 Y78.997 E0.01973
G1 X70.105 Y79.172 E0.0197
G1 X69.52 Y79.27 E0.01973
G1 X69.17 Y79.29 E0.01166
G1 X68.544 Y79.301 E0.02082
G1 X51.547 Y79.3 E0.56532
G1 X50.882 Y79.29 E0.02212
G1 X50.291 Y79.241 E0.01972
G1 X49.712 Y79.113 E0.01972
G1 X49.647 Y79.091 E0.00228
G1 X49.091 Y78.885 E0.01972
G1 X48.567 Y78.606 E0.01974
G1 X48.086 Y78.26 E0.01971
G1 X47.846 Y78.045 E0.01072
G1 X47.454 Y77.667 E0.01811
G1 X42.427 Y72.64 E0.23645
G1 X41.958 Y72.158 E0.02237
G1 X41.575 Y71.707 E0.01968
G1 X41.255 Y71.207 E0.01974
G1 X41.005 Y70.669 E0.01973
G1 X40.83 Y70.103 E0.0197
G1 X40.733 Y69.518 E0.01972
G1 X40.713 Y69.184 E0.01113
G1 X40.7 Y68.527 E0.02186
G1 X40.699 Y51.555 E0.56449
G1 X40.709 Y50.851 E0.02342
G1 X40.758 Y50.26 E0.01972
G1 X40.885 Y49.68 E0.01975
G1 X41.089 Y49.124 E0.0197
G1 X41.366 Y48.599 E0.01974
G1 X41.879 Y47.925 E0.02817
G1 X42.1 Y47.689 E0.01075
G1 X42.316 Y47.468 E0.01028
G1 X47.36 Y42.426 E0.23721
G1 X47.842 Y41.957 E0.02237
G1 X48.293 Y41.574 E0.01968
G1 X48.793 Y41.254 E0.01974
G1 X49.331 Y41.004 E0.01973
G1 X49.897 Y40.829 E0.0197
G1 X50.482 Y40.732 E0.01972
G1 X50.816 Y40.712 E0.01113
G1 X51.469 Y40.699 E0.02172
G1 X68.387 Y40.7 E0.56269
G1 X69.15 Y40.71 E0.02538
G0 F7200 X69.156 Y40.31
G1 F900 X69.773 Y40.359 E0.02059
G1 X70.379 Y40.487 E0.0206
G1 X70.964 Y40.692 E0.02062
G1 X71.517 Y40.97 E0.02059
G1 X72.03 Y41.318 E0.02062
G1 X72.41 Y41.646 E0.0167
G1 X72.826 Y42.047 E0.01922
G1 X77.856 Y47.077 E0.2366
G1 X78.325 Y47.558 E0.02234
G1 X78.728 Y48.028 E0.02059
G1 X79.067 Y48.547 E0.02062
G1 X79.336 Y49.105 E0.0206
G1 X79.531 Y49.692 E0.02057
G1 X79.649 Y50.3 E0.0206
G1 X79.687 Y50.807 E0.01691
G1 X79.7 Y51.471 E0.02209
G1 X79.7 Y68.453 E0.56482
G1 X79.69 Y69.151 E0.02322
G1 X79.641 Y69.768 E0.02059
G1 X79.513 Y70.374 E0.0206
G1 X79.308 Y70.959 E0.02062
G1 X79.029 Y71.512 E0.0206
G1 X78.682 Y72.025 E0.0206
G1 X78.368 Y72.39 E0.01601
G1 X77.915 Y72.864 E0.02181
G1 X72.945 Y77.836 E0.23382
G1 X72.439 Y78.329 E0.0235
G1 X71.968 Y78.732 E0.02062
G1 X71.45 Y79.07 E0.02057
G1 X70.892 Y79.34 E0.02062
G1 X70.304 Y79.535 E0.0206
G1 X69.696 Y79.652 E0.02059
G1 X69.177 Y79.69 E0.01731
G1 X68.544 Y79.701 E0.02106
G1 X51.541 Y79.699 E0.56552
G1 X50.876 Y79.689 E0.02212
G1 X50.258 Y79.64 E0.02062
G1 X49.653 Y79.512 E0.02057
G1 X49.079 Y79.315 E0.02018
G1 X48.522 Y79.045 E0.02059
G1 X48.004 Y78.705 E0.02061
G1 X47.569 Y78.334 E0.01902
G1 X47.171 Y77.95 E0.01839
G1 X42.141 Y72.919 E0.23662
G1 X41.672 Y72.437 E0.02237
G1 X41.269 Y71.967 E0.02059
G1 X40.931 Y71.448 E0.0206
G1 X40.662 Y70.89 E0.0206
G1 X40.468 Y70.302 E0.02059
G1 X40.35 Y69.694 E0.0206
G1 X40.313 Y69.192 E0.01674
G1 X40.3 Y68.527 E0.02212
G1 X40.299 Y51.549 E0.56469
G1 X40.309 Y50.845 E0.02342
G1 X40.358 Y50.227 E0.02062
G1 X40.486 Y49.621 E0.0206
G1 X40.691 Y49.037 E0.02059
G1 X40.969 Y48.484 E0.02059
G1 X41.316 Y47.971 E0.0206
G1 X41.586 Y47.653 E0.01387
G1 X41.814 Y47.409 E0.01111
G1 X42.033 Y47.186 E0.0104
G1 X47.081 Y42.14 E0.2374
G1 X47.563 Y41.671 E0.02237
G1 X48.033 Y41.268 E0.02059
G1 X48.552 Y40.93 E0.0206
G1 X49.11 Y40.661 E0.0206
G1 X49.698 Y40.467 E0.02059
G1 X50.306 Y40.349 E0.0206
G1 X50.807 Y40.312 E0.01671
G1 X51.469 Y40.299 E0.02202
G1 X68.387 Y40.3 E0.56269
G1 X69.156 Y40.31 E0.02558
G1 F1200 E-2
G1 F600 Z0.4
;MESH:Voron_Design_Cube_v7.stl
G0 F7200 X62.337 Y52.192 Z0.4
;TYPE:WALL-OUTER
G1 F600 Z0.2
G1 F480 E2
G1 F900 X61.93 Y52.084 E0.01401
G1 X61.518 Y51.993 E0.01403
G1 X61.103 Y51.926 E0.01398
G1 X60.685 Y51.88 E0.01399
G1 X60.263 Y51.855 E0.01406
G1 X59.842 Y51.853 E0.014
G1 X59.422 Y51.87 E0.01398
G1 X59.001 Y51.911 E0.01407
G1 X58.585 Y51.975 E0.014
G1 X58.172 Y52.059 E0.01402
G1 X57.764 Y52.165 E0.01402
G1 X57.362 Y52.29 E0.014
G1 X56.968 Y52.436 E0.01398
G1 X56.58 Y52.602 E0.01404
G1 X56.203 Y52.79 E0.01401
G1 X55.835 Y52.996 E0.01403
G1 X55.478 Y53.22 E0.01402
G1 X55.134 Y53.462 E0.01399
G1 X54.801 Y53.724 E0.01409
G1 X54.486 Y54.002 E0.01397
G1 X54.182 Y54.294 E0.01402
G1 X53.895 Y54.602 E0.014
G1 X53.623 Y54.924 E0.01402
G1 X53.37 Y55.263 E0.01407
G1 X53.135 Y55.61 E0.01394
G1 X52.916 Y55.971 E0.01404
G1 X52.717 Y56.343 E0.01403
G1 X52.539 Y56.725 E0.01402
G1 X52.379 Y57.114 E0.01399
G1 X52.24 Y57.513 E0.01405
G1 X52.122 Y57.917 E0.014
G1 X52.024 Y58.327 E0.01402
G1 X51.948 Y58.741 E0.014
G1 X51.894 Y59.159 E0.01402
G1 X51.861 Y59.58 E0.01405
G1 X51.851 Y60 E0.01397
G1 X51.86 Y60.42 E0.01397
G1 X51.894 Y60.842 E0.01408
G1 X51.948 Y61.259 E0.01399
G1 X52.023 Y61.674 E0.01403
G1 X52.122 Y62.083 E0.014
G1 X52.239 Y62.488 E0.01402
G1 X52.379 Y62.886 E0.01403
G1 X52.538 Y63.275 E0.01398
G1 X52.716 Y63.658 E0.01405
G1 X52.915 Y64.029 E0.014
G1 X53.132 Y64.39 E0.01401
G1 X53.369 Y64.738 E0.014
G1 X53.623 Y65.076 E0.01406
G1 X53.894 Y65.398 E0.014
G1 X54.181 Y65.706 E0.014
G1 X54.484 Y65.999 E0.01402
G1 X54.801 Y66.277 E0.01402
G1 X55.134 Y66.538 E0.01407
G1 X55.478 Y66.779 E0.01397
G1 X55.835 Y67.005 E0.01405
G1 X56.202 Y67.21 E0.01398
G1 X56.579 Y67.398 E0.01401
G1 X56.968 Y67.565 E0.01408
G1 X57.361 Y67.71 E0.01393
G1 X57.763 Y67.836 E0.01401
G1 X58.171 Y67.942 E0.01402
G1 X58.584 Y68.026 E0.01402
G1 X59.001 Y68.089 E0.01403
G1 X59.421 Y68.13 E0.01404
G1 X59.842 Y68.148 E0.01402
G1 X60.263 Y68.145 E0.014
G1 X60.684 Y68.12 E0.01403
G1 X61.103 Y68.074 E0.01402
G1 X61.518 Y68.008 E0.01398
G1 X61.93 Y67.917 E0.01403
G1 X62.336 Y67.808 E0.01398
G1 X62.737 Y67.675 E0.01405
G1 X63.131 Y67.525 E0.01402
G1 X63.515 Y67.352 E0.01401
G1 X63.891 Y67.161 E0.01403
G1 X64.256 Y66.951 E0.01401
G1 X64.609 Y66.721 E0.01401
G1 X64.947 Y66.476 E0.01388
G1 X65.119 Y66.342 E0.00725
G1 X65.436 Y66.072 E0.01385
G1 X65.593 Y65.927 E0.00711
G1 X65.892 Y65.631 E0.01399
G1 X66.173 Y65.32 E0.01394
G1 X66.31 Y65.157 E0.00708
G1 X66.442 Y64.992 E0.00703
G1 X66.69 Y64.653 E0.01397
G1 X66.922 Y64.302 E0.01399
G1 X67.135 Y63.939 E0.014
G1 X67.329 Y63.563 E0.01407
G1 X67.503 Y63.18 E0.01399
G1 X67.657 Y62.787 E0.01404
G1 X67.791 Y62.389 E0.01397
G1 X67.904 Y61.983 E0.01402
G1 X67.996 Y61.572 E0.01401
G1 X68.067 Y61.155 E0.01407
G1 X68.115 Y60.74 E0.01389
G1 X68.133 Y60.526 E0.00714
G1 X68.143 Y60.313 E0.00709
G1 X68.148 Y59.898 E0.0138
G1 X68.143 Y59.684 E0.00712
G1 X68.133 Y59.472 E0.00706
G1 X68.095 Y59.055 E0.01393
G1 X68.034 Y58.637 E0.01405
G1 X67.953 Y58.223 E0.01403
G1 X67.851 Y57.815 E0.01399
G1 X67.728 Y57.413 E0.01398
G1 X67.583 Y57.017 E0.01403
G1 X67.419 Y56.629 E0.01401
G1 X67.236 Y56.249 E0.01403
G1 X67.032 Y55.881 E0.01399
G1 X66.809 Y55.522 E0.01406
G1 X66.568 Y55.176 E0.01402
G1 X66.31 Y54.843 E0.01401
G1 X66.035 Y54.525 E0.01398
G1 X65.746 Y54.221 E0.01395
G1 X65.589 Y54.07 E0.00725
G1 X65.281 Y53.794 E0.01376
G1 X65.118 Y53.658 E0.00706
G1 X64.948 Y53.524 E0.0072
G1 X64.609 Y53.279 E0.01391
G1 X64.256 Y53.049 E0.01401
G1 X63.891 Y52.839 E0.01401
G1 X63.516 Y52.649 E0.01398
G1 X63.131 Y52.475 E0.01405
G1 X62.738 Y52.325 E0.01399
G1 X62.337 Y52.192 E0.01405
G0 F7200 X62.144 Y52.141
G0 X62.257 Y51.716
G1 F1200 E-2
G0 F7200 X74.608 Y51.029
G0 X74.7 Y50.991
G1 F480 E2
G1 F900 X74.7 Y69.009 E0.59928
G1 X69.01 Y74.701 E0.26769
G1 X50.991 Y74.7 E0.59931
G1 X45.3 Y69.009 E0.26769
G1 X45.299 Y50.99 E0.59931
G1 X50.99 Y45.299 E0.26769
G1 X69.009 Y45.3 E0.59931
G1 X74.7 Y50.991 E0.26769
G0 F7200 X74.7 Y51.191
G0 X74.26 Y51.191
G0 X74.31 Y51.151
;TYPE:SKIN
G1 F900 X74.31 Y68.849 E0.58864
G1 X68.85 Y74.311 E0.25687
G1 X51.151 Y74.31 E0.58867
G1 X45.69 Y68.849 E0.25687
G1 X45.689 Y51.15 E0.58867
G1 X51.15 Y45.689 E0.25687
G1 X68.849 Y45.69 E0.58867
G1 X74.31 Y51.151 E0.25687
G0 F7200 X67.369 Y55.684
G1 F900 X67.135 Y55.307 E0.01476
G1 X66.882 Y54.946 E0.01466
G1 X66.612 Y54.596 E0.0147
G1 X66.324 Y54.263 E0.01464
G1 X66.023 Y53.946 E0.01454
G1 X65.854 Y53.784 E0.00779
G1 X65.536 Y53.499 E0.0142
G1 X65.184 Y53.212 E0.01511
G1 X64.83 Y52.957 E0.01451
G1 X64.46 Y52.716 E0.01469
G1 X64.076 Y52.496 E0.01472
G1 X63.684 Y52.298 E0.01461
G1 X63.281 Y52.115 E0.01472
G1 X62.869 Y51.958 E0.01466
G1 X62.448 Y51.818 E0.01476
G1 X62.022 Y51.705 E0.01466
G1 X61.592 Y51.609 E0.01465
G1 X61.155 Y51.54 E0.01471
G1 X60.718 Y51.492 E0.01462
G1 X60.275 Y51.465 E0.01476
G1 X59.835 Y51.463 E0.01463
G1 X59.395 Y51.48 E0.01465
G1 X58.952 Y51.523 E0.0148
G1 X58.517 Y51.591 E0.01464
G1 X58.084 Y51.679 E0.0147
G1 X57.657 Y51.79 E0.01467
G1 X57.237 Y51.921 E0.01463
G1 X56.824 Y52.073 E0.01464
G1 X56.416 Y52.247 E0.01475
G1 X56.02 Y52.445 E0.01473
G1 X55.636 Y52.661 E0.01465
G1 X55.262 Y52.895 E0.01467
G1 X54.901 Y53.15 E0.0147
G1 X54.551 Y53.424 E0.01478
G1 X54.221 Y53.715 E0.01463
G1 X53.904 Y54.021 E0.01465
G1 X53.603 Y54.343 E0.01466
G1 X53.317 Y54.682 E0.01475
G1 X53.052 Y55.037 E0.01473
G1 X52.807 Y55.399 E0.01454
G1 X52.577 Y55.778 E0.01475
G1 X52.368 Y56.169 E0.01475
G1 X52.182 Y56.569 E0.01467
G1 X52.014 Y56.975 E0.01461
G1 X51.868 Y57.394 E0.01476
G1 X51.745 Y57.817 E0.01465
G1 X51.642 Y58.247 E0.01471
G1 X51.562 Y58.681 E0.01468
G1 X51.506 Y59.118 E0.01465
G1 X51.471 Y59.56 E0.01475
G1 X51.461 Y60 E0.01464
G1 X51.47 Y60.44 E0.01464
G1 X51.506 Y60.883 E0.01478
G1 X51.562 Y61.319 E0.01462
G1 X51.641 Y61.754 E0.0147
G1 X51.745 Y62.183 E0.01468
G1 X51.867 Y62.607 E0.01467
